X:1
T:Title
%%score { ( 1 3 ) | ( 2 4 ) }
L:1/8
M:6/4
K:Bb
V:1 treble nm="Grand Piano"
V:3 treble 
V:2 bass 
V:4 bass 
V:1
 z6 z4[Q:1/4=156] [DF]2 | [DF]2 [DG]2 [DF]2 [DF]2 [Fd]2 [Ec]2 | [DB]2 [FA]2 [EG]2 [DF]4 [DF]2 | %3
 [EF]2 [EA]2 [EG]2 E2 A2 G2 | [EG]6 [DF]4 [DF]2 | G2 ^F2 G2 [GB]2 [=FA]2 G2 | F2 B2 e2 d4 [Fd]2 | %7
 [=Ed]2 [Ec]2 [EG]2 [Ed]2 [Ec]2 [EG]2 | [Fc]6 [G_d]6 | [^Fd]2 B2 [Ge]2 d2 d2 c2 | [DB]12 | B6 A6 | %12
 z6 F6 | .F6 .c6 | A6 G6 | G6 E6 | z6 G6 | z6 .A6 | G6 F6 | [Bd]2 c2 B2 [GB]2 A2 G2 | A6 D6 | %21
 [Bd]2 c2 B2 [GB]2 A2 G2 | A12 | B6 B6 |[M:15/8] B6 f3- f6 |[M:6/4] f2 B2 [Ge]2 .[FBd]4 [EFc]2 | %26
 [DFB]12 |] %27
V:2
 z6 z4 [B,,B,]2 | [B,,B,]2 [B,,B,]2 [B,,B,]2 [B,,B,]2 [B,,B,]2 [B,,B,]2 | %2
 [B,,F,]2 [B,,G,]2 [B,,A,]2 [B,,B,]4 [B,,B,]2 | [C,A,]2 [C,F,]2 [C,G,]2 [F,A,]2 [F,CE]2 [F,B,E]2 | %4
 [B,,B,]6- [B,,B,]4 [B,,B,]2 | [E,B,E]2 [E,A,E]2 [E,B,E]2 [E,E]2 [E,B,]2 [E,B,E]2 | %6
 [B,D]2 [B,D]2 [B,G]2 [B,F]4[K:bass] [B,,B,]2 | [C,G,]2 [C,G,]2 [C,B,]2 [C,G,]2 [C,G,]2 [C,B,]2 | %8
 [F,A,]6 [E,A,]6 | [D,A,]2 [G,G]2 [E,B,]2 [F,B,F]2 [F,B,F]2 [F,A,E]2 | [B,,B,]12 | %11
 z2 D2 D2 z2 [CE]2 [CE]2 | G,2 D,2 G,2 z2 C2 C2 | B,,6 B,2- [B,-D]2 [D,B,]2 | z2 E2 E2 z2 B,2 B,2 | %15
 z2 C2 C2 z2 G,2 G,2 | [E,,E,]6 z2 C2 C2 | z2[K:treble] A2 B2[K:bass] [F,,F,]6 | %18
 z2 B,2 B,2 z2 B,2 B,2 | G,2[K:treble] [A,A]2 [B,G]2 G,2 [A,^F]2 B,2 | z2 C2 C2 z2 A,2 A,2 | %21
 G,2[K:treble] [A,A]2 [B,G]2[K:bass] G,2 [A,^F]2 B,,2 | z2 D2 D2 z2 E2 E2 | z2 D2 D2 z2 D2 D2 | %24
[M:15/8] z2 E-E E2 z2 _A-A[K:treble] A2- A3 |[M:6/4] [G,B,G]2[K:bass] [G,B,D]2 [E,B,]2 z2 =E2 F,2 | %26
 B,,12 |] %27
V:3
 x12 | x12 | x12 | x12 | x12 | x12 | x12 | x12 | x12 | x12 | x12 | z2 F2 F2 z2 F2 F2 | %12
 G2 D2 G2 z2 E2 E2 | [F,D]2- [F,-D-G]2 [F,DA]2 z2 F2 [DFB]2 | B,2- [B,-G]2 [B,-G]2 B,2 E2 E2 | %15
 z2 E2 E2 z2 C2 C2 | C2 C2 E2 z2 E2 E2 | .[A,CEG]6 [CE]2- [C-E-B]2 [CEA]2 | z2 D2 D2 z2 D2 D2 | %19
 x12 | z2 D2 D2 z2 C2 C2 | x12 | z2 ^F2 F2 z2 =F2 F2 | z2 F2 F2 z2 F2 F2 | %24
[M:15/8] z2 G-G G2 z2 =B-B B2- B3 |[M:6/4] x12 | x12 |] %27
V:4
 x12 | x12 | x12 | x12 | x12 | x12 | x10[K:bass] x2 | x12 | x12 | x12 | x12 | [B,,B,]6 [A,,A,]6 | %12
 z6 [F,,F,]6 | z6 .B,,6 | E,12 | [E,,E,]6 [C,,C,]6 | z6 [C,,C,]6 | A,,6[K:treble][K:bass] z6 | %18
 [B,,=E,]6 [B,,F,]6 | D,6[K:treble] D,6 | [F,,F,]6 [D,,D,]6 | D,6[K:treble][K:bass] D,6 | %22
 D,,6 C,,6 | G,,,6 _A,,,6 |[M:15/8] G,,,6 =B,,,3- B,,,6[K:treble] |[M:6/4] z6[K:bass] .F,6 | x12 |] %27

